lib/brands/icons/facebook-watch.svg

<svg xmlns="http://www.w3.org/2000/svg" fill="none" aria-hidden="true" viewBox="0 0 48 48"><g id="facebook-watch-Icon"><g id="Vector"><path fill="#1877F2" d="M29.4486 22.716L21.2183 27.5881C20.4615 28.037 19.5007 27.4955 19.5007 26.6226V16.8766C19.5007 16.0026 20.4615 15.4617 21.2183 15.9109L29.4486 20.7832C30.1858 21.2201 30.1858 22.2791 29.4486 22.716Z"/><path fill="#1877F2" fill-rule="evenodd" d="M37.1256 36.0005H10.8752C8.18664 36.0005 6 33.8133 6 31.125V12.3747C6 9.68714 8.18664 7.49973 10.8752 7.49973H37.125C39.8134 7.49973 42 9.68636 42 12.3747V31.125C42 33.8128 39.8134 36.0005 37.1256 36.0005ZM10.8752 9.75041C9.4274 9.75041 8.2499 10.9284 8.2499 12.3755V31.1255C8.2499 32.5726 9.4274 33.7506 10.8752 33.7506H37.125C38.5729 33.7506 39.7501 32.5726 39.7501 31.1255V12.3747C39.7501 10.9276 38.5729 9.74963 37.125 9.74963H10.8752V9.75041Z" clip-rule="evenodd"/><path fill="#1877F2" d="M16.9787 40.5003H31.0234C31.1355 40.5003 31.2464 40.4783 31.3499 40.4355C31.4534 40.3926 31.5474 40.3298 31.6266 40.2506C31.7059 40.1714 31.7687 40.0774 31.8116 39.9739C31.8544 39.8704 31.8765 39.7595 31.8765 39.6475V39.1032C31.8766 38.9912 31.8546 38.8802 31.8117 38.7767C31.7689 38.6731 31.7061 38.5791 31.6269 38.4998C31.5477 38.4206 31.4537 38.3577 31.3502 38.3148C31.2467 38.2719 31.1357 38.2499 31.0237 38.2499H16.9787C16.8666 38.2499 16.7557 38.2719 16.6522 38.3148C16.5487 38.3577 16.4546 38.4206 16.3754 38.4998C16.2962 38.5791 16.2333 38.6731 16.1905 38.7767C16.1476 38.8802 16.1256 38.9911 16.1256 39.1032V39.6475C16.1257 39.8737 16.2156 40.0906 16.3756 40.2505C16.5355 40.4105 16.7525 40.5003 16.9787 40.5003Z"/></g></g></svg>

<svg xmlns="http://www.w3.org/2000/svg" fill="none" aria-hidden="true" viewBox="0 0 48 48"><path fill="#1877F2" d="m29.449 22.716-8.23 4.872c-.758.449-1.718-.093-1.718-.965v-9.746c0-.874.96-1.415 1.717-.966l8.23 4.872a1.121 1.121 0 0 1 0 1.933Z"/><path fill="#1877F2" fill-rule="evenodd" d="M37.126 36h-26.25A4.88 4.88 0 0 1 6 31.126v-18.75A4.88 4.88 0 0 1 10.875 7.5h26.25A4.88 4.88 0 0 1 42 12.375v18.75a4.88 4.88 0 0 1-4.874 4.876ZM10.876 9.75a2.628 2.628 0 0 0-2.626 2.626v18.75a2.628 2.628 0 0 0 2.625 2.625h26.25a2.628 2.628 0 0 0 2.625-2.625V12.374a2.628 2.628 0 0 0-2.625-2.625h-26.25Z" clip-rule="evenodd"/><path fill="#1877F2" d="M16.979 40.5h14.044a.852.852 0 0 0 .854-.852v-.545a.85.85 0 0 0-.853-.853H16.979a.852.852 0 0 0-.853.853v.544a.853.853 0 0 0 .853.853Z"/></svg>
